app/images/icon_team.svg

<svg width="63" height="63" viewBox="0 0 63 63" fill="none" xmlns="http://www.w3.org/2000/svg">
<path d="M41.9832 16.3434C42.7131 14.1792 44.6223 12.5647 46.9483 12.2556L48.5122 8.59443L43.1313 3.2151L39.9594 5.2796C38.7542 4.60086 37.4796 4.07245 36.1559 3.70183L35.3724 0H27.6284L26.845 3.70183C25.5212 4.07245 24.2456 4.60086 23.0414 5.2796L19.8695 3.2151L14.4932 8.59145L16.0273 12.2461C18.3592 12.5572 20.2322 14.2521 20.9819 16.4392L21.3386 15.6587C23.1585 11.7019 27.1466 9.14516 31.4999 9.14516C35.8145 9.14516 39.7887 11.6691 41.6235 15.5773L41.9832 16.3434Z" fill="#C40B0B"/>
<path d="M39.8443 27.712L35.5635 26.6407V26.154C37.4573 24.8323 38.6128 22.6487 38.6128 20.3227V18.5464C38.6128 14.599 35.5198 11.2956 31.7183 11.1805C29.7703 11.1185 27.9395 11.8339 26.5473 13.1855C25.1541 14.537 24.387 16.3494 24.387 18.2904V20.3227C24.387 22.6487 25.5416 24.8313 27.4354 26.153V26.6407L23.1556 27.712C20.8896 28.2781 19.3064 30.3054 19.3064 32.6413V34.4359L22.1414 33.8058C22.9586 33.6237 23.7936 33.5324 24.6297 33.5324C25.8155 33.5324 26.9943 33.7164 28.1231 34.0772L32.7751 35.5646C33.2772 35.5646 33.7773 35.6346 34.2596 35.773L40.6451 37.5969H41.6612L43.6935 36.5267V32.6413C43.6935 30.3054 42.1103 28.2781 39.8443 27.712Z" fill="#C40B0B"/>
<path d="M63 26.4193H60.7167L57.3135 28.2099C56.9305 27.9985 56.5321 27.8194 56.1024 27.7118L51.8216 26.6406V26.1538C53.7154 24.8321 54.871 22.6485 54.871 20.3225V18.5463C54.871 14.5988 51.7779 11.2954 47.9764 11.1803C46.0314 11.1233 44.1976 11.8338 42.8054 13.1853C41.4122 14.5368 40.6452 16.3493 40.6452 18.2902V20.3225C40.6452 22.6485 41.7997 24.8311 43.6935 26.1528V26.6406L39.629 27.6582L39.8444 27.7118C40.7856 27.9464 41.5983 28.4436 42.2383 29.1L45.7258 28.2288V25.0107L45.2187 24.7175C43.6509 23.811 42.6774 22.126 42.6774 20.3225V18.2902C42.6774 16.9045 43.2252 15.6085 44.221 14.6435C45.2158 13.679 46.5355 13.159 47.9153 13.2126C50.6298 13.2939 52.8387 15.6869 52.8387 18.5463V20.3225C52.8387 22.126 51.8643 23.811 50.2954 24.7194L49.7873 25.0132L49.7913 28.2288L54.868 29.4969L41.4102 36.5806H40.7876L34.5404 34.7954C34.0493 34.656 33.5422 34.5989 33.0331 34.5796L28.4333 33.1094C26.337 32.4377 24.0681 32.3374 21.9222 32.8127L16.138 34.0983L16.2204 33.8105L16.2581 31.9326L10.8991 28.8063L13.2097 28.2288V25.0107L12.7026 24.7175C11.1347 23.811 10.1613 22.126 10.1613 20.3225V18.2902C10.1613 16.9045 10.709 15.6085 11.7048 14.6435C12.6996 13.679 14.0224 13.159 15.3992 13.2126C18.1137 13.2939 20.3226 15.6869 20.3226 18.5463V20.3225C20.3226 22.126 19.3481 23.811 17.7793 24.7194L17.2712 25.0132L17.2752 28.2288L20.7617 29.1C21.4027 28.4436 22.2144 27.9464 23.1556 27.7118L23.371 27.6582L19.3055 26.6406V26.1538C21.1993 24.8321 22.3548 22.6485 22.3548 20.3225V18.5463C22.3548 14.5988 19.2618 11.2954 15.4602 11.1803C13.5143 11.1233 11.6815 11.8338 10.2893 13.1853C8.89609 14.5368 8.12903 16.3493 8.12903 18.2902V20.3225C8.12903 22.6485 9.28359 24.8311 11.1774 26.1528V26.6406L8.38505 27.3386L3.32375 24.387H0V45.4424L9.99657 48.7741H11.9435L12.1866 47.9227L15.2509 49.762C15.301 51.428 16.6371 52.7687 18.3017 52.8272C18.3603 54.4849 19.6925 55.8171 21.3501 55.8756C21.4087 57.5333 22.7408 58.8654 24.3985 58.924C24.459 60.6203 25.8483 61.9838 27.5585 61.9838C28.1936 61.9838 28.8163 61.7858 29.3397 61.4331L30.2398 62.2279C30.8039 62.7245 31.5303 62.9999 32.2844 62.9999H32.4725C34.1634 62.9999 35.5392 61.633 35.5605 59.9476C37.2331 59.9262 38.5876 58.5717 38.6089 56.8992C40.2825 56.8778 41.638 55.5213 41.6573 53.8478C43.3462 53.8081 44.7097 52.4283 44.7097 50.73C44.7097 50.6277 44.7047 50.527 44.6943 50.4253L63 41.2732V26.4193ZM2.03226 26.4193H2.77302L10.0809 30.6818L6.39348 45.431L2.03226 43.9768V26.4193ZM10.326 46.7418L8.32601 46.0755L11.9083 31.748L14.2258 33.0995V33.3898L10.4114 46.7418H10.326ZM17.2742 49.6672C17.2742 49.3675 17.3953 49.0738 17.6076 48.8614L19.3938 47.0753C19.6061 46.8629 19.8999 46.7418 20.1995 46.7418C20.8277 46.7418 21.3387 47.2529 21.3387 47.881C21.3387 48.1807 21.2176 48.4744 21.0053 48.6868L19.2191 50.4729C19.0068 50.6853 18.713 50.8064 18.4134 50.8064C17.7852 50.8064 17.2742 50.2953 17.2742 49.6672ZM20.3226 52.7156C20.3226 52.4159 20.4436 52.1222 20.656 51.9098L22.4422 50.1237C22.6545 49.9113 22.9482 49.7902 23.2479 49.7902C23.8761 49.7902 24.3871 50.3013 24.3871 50.9294C24.3871 51.2291 24.266 51.5228 24.0537 51.7352L22.2675 53.5213C22.0552 53.7337 21.7614 53.8548 21.4618 53.8548C20.8336 53.8548 20.3226 53.3437 20.3226 52.7156ZM23.371 55.764C23.371 55.4643 23.492 55.1706 23.7044 54.9582L25.4905 53.172C25.7029 52.9597 25.9966 52.8386 26.2963 52.8386C26.9244 52.8386 27.4355 53.3497 27.4355 53.9778C27.4355 54.2775 27.3144 54.5712 27.1021 54.7836L25.3159 56.5697C25.1035 56.7821 24.8098 56.9031 24.5101 56.9031C23.882 56.9031 23.371 56.3921 23.371 55.764ZM27.5585 59.9515C26.9304 59.9515 26.4194 59.4405 26.4194 58.8124C26.4194 58.5127 26.5404 58.2189 26.7528 58.0066L28.5389 56.2204C28.7513 56.0081 29.045 55.887 29.3447 55.887C29.9728 55.887 30.4839 56.3981 30.4839 57.0262C30.4839 57.3259 30.3628 57.6196 30.1505 57.8319L28.3643 59.6181C28.1519 59.8305 27.8582 59.9515 27.5585 59.9515ZM32.4725 60.9677H32.2844C32.0254 60.9677 31.7774 60.8734 31.5843 60.7022L30.8242 60.0319L31.5873 59.2688C31.8597 58.9964 32.0711 58.6724 32.2274 58.3246L33.1512 59.0937C33.3928 59.2951 33.5323 59.5918 33.5323 59.9079C33.5323 60.4923 33.0569 60.9677 32.4725 60.9677V60.9677ZM41.5849 51.8225H41.4092C41.1542 51.8225 40.9051 51.7322 40.7102 51.5685L35.1998 46.9765L33.8979 48.5384L39.249 52.9969C39.4896 53.1983 39.629 53.495 39.629 53.8111C39.629 54.3956 39.1537 54.8709 38.5692 54.8709H38.3475C38.1009 54.8709 37.8597 54.7836 37.6697 54.6248L32.1505 50.0259L30.8485 51.5878L36.1996 56.0468C36.4412 56.2467 36.5806 56.5434 36.5806 56.8595C36.5806 57.4439 36.1053 57.9193 35.5209 57.9193C35.1309 57.9193 34.7508 57.7808 34.4516 57.5323L32.1837 55.6419C31.6841 54.6208 30.6575 53.9088 29.4553 53.8662C29.3968 52.2085 28.0646 50.8763 26.407 50.8178C26.3484 49.1601 25.0162 47.8279 23.3586 47.7694C23.299 46.073 21.9098 44.7096 20.1995 44.7096C19.3645 44.7096 18.5473 45.048 17.9569 45.6384L16.1707 47.4246C16.0641 47.5312 15.9758 47.6523 15.8859 47.7724L12.7646 45.8994L15.5009 36.3226L22.3608 34.7974C24.1604 34.395 26.0577 34.4823 27.8126 35.044L29.3095 35.5228L24.2348 38.0601C23.0753 38.6411 22.3548 39.8076 22.3548 41.1045V41.3055C22.3548 43.1824 23.882 44.7096 25.759 44.7096C26.3757 44.7096 26.9825 44.5419 27.5099 44.2239L31.2936 41.9549C32.0537 41.4995 33.0738 41.5992 33.7302 42.1896L42.3157 49.9163C42.5454 50.1246 42.6774 50.4204 42.6774 50.73C42.6774 51.3328 42.1877 51.8225 41.5849 51.8225V51.8225ZM60.9677 40.0169L43.8488 48.5771C43.7933 48.5181 43.7352 48.462 43.6742 48.4074L35.0902 40.6808C34.338 40.0021 33.3655 39.6289 32.3524 39.6289C31.6116 39.6289 30.8843 39.8304 30.2472 40.2124L26.462 42.4823C26.2497 42.6104 26.007 42.6773 25.759 42.6773C25.0018 42.6773 24.3871 42.0626 24.3871 41.3055V41.1045C24.3871 40.5811 24.6778 40.1117 25.1452 39.878L30.8133 37.044C31.7833 36.5582 32.9349 36.4496 33.9803 36.7502L40.3658 38.5741L41.9123 38.6128L60.9677 28.5835V40.0169Z" fill="#02133C"/>
</svg>

<svg width="63" height="63" fill="none" xmlns="http://www.w3.org/2000/svg"><path d="M41.983 16.343a6.094 6.094 0 014.965-4.087l1.564-3.662-5.38-5.379-3.173 2.065a17.189 17.189 0 00-3.803-1.578L35.372 0h-7.744l-.783 3.702c-1.324.37-2.6.899-3.804 1.578L19.87 3.215l-5.376 5.376 1.534 3.655c2.332.311 4.205 2.006 4.955 4.193l.357-.78A11.216 11.216 0 0131.5 9.145a11.23 11.23 0 0110.125 6.432l.36.766z" fill="#C40B0B"/><path d="M39.844 27.712l-4.28-1.071v-.487a7.136 7.136 0 003.049-5.831v-1.777c0-3.947-3.093-7.25-6.895-7.365a7.035 7.035 0 00-5.17 2.005 7.054 7.054 0 00-2.161 5.104v2.033a7.133 7.133 0 003.048 5.83v.488l-4.28 1.071a5.074 5.074 0 00-3.849 4.93v1.794l2.835-.63a11.444 11.444 0 015.982.271l4.652 1.488c.502 0 1.002.07 1.485.208l6.385 1.824h1.016l2.032-1.07V32.64a5.074 5.074 0 00-3.849-4.929z" fill="#C40B0B"/><path d="M63 26.42h-2.283l-3.404 1.79a5.046 5.046 0 00-1.21-.498l-4.281-1.071v-.487a7.136 7.136 0 003.049-5.831v-1.777c0-3.947-3.093-7.25-6.895-7.366a7.06 7.06 0 00-5.17 2.005 7.054 7.054 0 00-2.16 5.105v2.033a7.133 7.133 0 003.047 5.83v.488l-4.064 1.017.215.054a5.043 5.043 0 012.394 1.388l3.488-.871V25.01l-.507-.293a5.095 5.095 0 01-2.542-4.395V18.29c0-1.386.548-2.681 1.544-3.646a5.01 5.01 0 013.694-1.431c2.715.08 4.924 2.474 4.924 5.333v1.777a5.1 5.1 0 01-2.544 4.396l-.508.294.004 3.216 5.077 1.268L41.41 36.58h-.622l-6.248-1.786a6.387 6.387 0 00-1.507-.215l-4.6-1.47a12.55 12.55 0 00-6.51-.297l-5.785 1.285.082-.288.038-1.877-5.359-3.127 2.31-.577V25.01l-.506-.293a5.095 5.095 0 01-2.542-4.395V18.29c0-1.386.548-2.681 1.544-3.646a5.016 5.016 0 013.694-1.431c2.715.08 4.924 2.474 4.924 5.333v1.777a5.1 5.1 0 01-2.544 4.396l-.508.294.004 3.216 3.487.871a5.048 5.048 0 012.394-1.388l.215-.054-4.066-1.017v-.487a7.136 7.136 0 003.05-5.831v-1.777c0-3.947-3.093-7.25-6.895-7.366a7.058 7.058 0 00-5.17 2.005 7.054 7.054 0 00-2.161 5.105v2.033a7.133 7.133 0 003.048 5.83v.488l-2.792.698-5.061-2.952H0v21.055l9.997 3.332h1.947l.243-.851 3.064 1.839a3.164 3.164 0 003.05 3.065 3.163 3.163 0 003.05 3.049 3.163 3.163 0 003.047 3.048 3.17 3.17 0 003.16 3.06c.636 0 1.258-.198 1.782-.55l.9.794c.564.496 1.29.772 2.044.772h.188a3.094 3.094 0 003.088-3.052 3.09 3.09 0 003.049-3.049 3.09 3.09 0 003.048-3.051 3.125 3.125 0 003.037-3.423L63 41.273V26.42zm-60.968 0h.741l7.308 4.262L6.393 45.43l-4.36-1.454V26.419zm8.294 20.322l-2-.666 3.582-14.328 2.318 1.351v.29L10.41 46.743h-.085zm6.948 2.925c0-.3.121-.593.334-.806l1.786-1.786a1.14 1.14 0 011.611 1.611l-1.786 1.787a1.14 1.14 0 01-1.945-.806zm3.049 3.049c0-.3.12-.594.333-.806l1.786-1.786a1.14 1.14 0 011.611 1.611l-1.786 1.786a1.14 1.14 0 01-1.945-.806zm3.048 3.048c0-.3.121-.593.333-.806l1.787-1.786a1.14 1.14 0 011.612 1.612l-1.787 1.786a1.14 1.14 0 01-1.945-.806zm4.188 4.188a1.14 1.14 0 01-.806-1.945l1.786-1.787a1.14 1.14 0 011.612 1.611l-1.787 1.787a1.147 1.147 0 01-.806.334zm4.913 1.016h-.188c-.259 0-.507-.095-.7-.266l-.76-.67.763-.763a3.16 3.16 0 00.64-.944l.924.769a1.061 1.061 0 01-.679 1.874zm9.113-9.146h-.176a1.09 1.09 0 01-.699-.254l-5.51-4.591-1.302 1.561 5.351 4.459a1.06 1.06 0 01-.68 1.874h-.222a1.06 1.06 0 01-.677-.246l-5.52-4.6-1.301 1.563 5.35 4.459c.242.2.382.496.382.813a1.06 1.06 0 01-1.06 1.06c-.39 0-.77-.14-1.07-.388l-2.267-1.89a3.16 3.16 0 00-2.729-1.776 3.163 3.163 0 00-3.048-3.048 3.163 3.163 0 00-3.048-3.049 3.168 3.168 0 00-3.16-3.06 3.19 3.19 0 00-2.242.93l-1.786 1.786c-.107.106-.195.227-.285.347L12.765 45.9l2.736-9.576 6.86-1.526c1.8-.402 3.697-.315 5.452.247l1.497.479-5.075 2.537a3.387 3.387 0 00-1.88 3.044v.202a3.408 3.408 0 003.404 3.404c.617 0 1.224-.168 1.75-.486l3.785-2.27a2.098 2.098 0 012.436.236l8.586 7.726a1.093 1.093 0 01-.73 1.906zm19.383-11.805l-17.12 8.56a2.829 2.829 0 00-.174-.17l-8.584-7.726a4.093 4.093 0 00-4.843-.468l-3.785 2.27a1.372 1.372 0 01-2.075-1.177v-.201c0-.524.29-.993.758-1.227l5.668-2.834a4.417 4.417 0 013.167-.294l6.386 1.824 1.546.039 19.056-10.03v11.434z" fill="#02133C"/></svg>
